svg/crypto/tether_USDT_line.svg

<?xml version="1.0" encoding="UTF-8"?>
<svg width="24px" height="24px" viewBox="0 0 24 24" version="1.1" xmlns="http://www.w3.org/2000/svg" xmlns:xlink="http://www.w3.org/1999/xlink">
    <title>tether_USDT_line</title>
    <g id="页面-1" stroke="none" stroke-width="1" fill="none" fill-rule="evenodd">
        <g id="Business" transform="translate(-528.000000, -384.000000)">
            <g id="tether_USDT_line" transform="translate(528.000000, 384.000000)">
                <path d="M24,0 L24,24 L0,24 L0,0 L24,0 Z M12.5934901,23.257841 L12.5819402,23.2595131 L12.5108777,23.2950439 L12.4918791,23.2987469 L12.4918791,23.2987469 L12.4767152,23.2950439 L12.4056548,23.2595131 C12.3958229,23.2563662 12.3870493,23.2590235 12.3821421,23.2649074 L12.3780323,23.275831 L12.360941,23.7031097 L12.3658947,23.7234994 L12.3769048,23.7357139 L12.4804777,23.8096931 L12.4953491,23.8136134 L12.4953491,23.8136134 L12.5071152,23.8096931 L12.6106902,23.7357139 L12.6232938,23.7196733 L12.6232938,23.7196733 L12.6266527,23.7031097 L12.609561,23.275831 C12.6075724,23.2657013 12.6010112,23.2592993 12.5934901,23.257841 L12.5934901,23.257841 Z M12.8583906,23.1452862 L12.8445485,23.1473072 L12.6598443,23.2396597 L12.6498822,23.2499052 L12.6498822,23.2499052 L12.6471943,23.2611114 L12.6650943,23.6906389 L12.6699349,23.7034178 L12.6699349,23.7034178 L12.678386,23.7104931 L12.8793402,23.8032389 C12.8914285,23.8068999 12.9022333,23.8029875 12.9078286,23.7952264 L12.9118235,23.7811639 L12.8776777,23.1665331 C12.8752882,23.1545897 12.8674102,23.1470016 12.8583906,23.1452862 L12.8583906,23.1452862 Z M12.1430473,23.1473072 C12.1332178,23.1423925 12.1221763,23.1452606 12.1156365,23.1525954 L12.1099173,23.1665331 L12.0757714,23.7811639 C12.0751323,23.7926639 12.0828099,23.8018602 12.0926481,23.8045676 L12.108256,23.8032389 L12.3092106,23.7104931 L12.3186497,23.7024347 L12.3186497,23.7024347 L12.3225043,23.6906389 L12.340401,23.2611114 L12.337245,23.2485176 L12.337245,23.2485176 L12.3277531,23.2396597 L12.1430473,23.1473072 Z" id="MingCute" fill-rule="nonzero"></path>
                <path d="M17.4196,3 C18.0820923,3 18.6977207,3.32768095 19.068595,3.86821775 L19.1561,4.00772 L22.4892,9.8407 C22.9087313,10.5748562 22.8189363,11.4870789 22.2805422,12.1236875 L22.1669,12.2472 L12.8838,21.5303 C12.42824,21.9859533 11.7083849,22.0163302 11.2175042,21.6214307 L11.116,21.5303 L1.8329,12.2472 C1.23501875,11.6492625 1.08163555,10.7456414 1.43350204,9.98976995 L1.51063,9.8407 L4.84376,4.00772 C5.17245846,3.43250462 5.76239337,3.06057633 6.41571385,3.00676024 L6.58025,3 L17.4196,3 Z M17.4196,5 L6.58025,5 L3.24712,10.833 L11.9999,19.5858 L20.7527,10.833 L17.4196,5 Z M14.9999,6 C15.5522,6 15.9999,6.44772 15.9999,7 C15.9999,7.55228 15.5522,8 14.9999,8 L12.9999,8 L12.9999,9.54505 C13.7583,9.61466 14.4474,9.76247 15.0039,9.97118 C15.3986,10.1192 15.7528,10.3075 16.0173,10.542 C16.2812,10.776 16.4999,11.0986 16.4999,11.5 C16.4999,11.9014 16.2812,12.224 16.0173,12.458 C15.7528,12.6925 15.3986,12.8808 15.0039,13.0288 C14.4101,13.2515 13.6655,13.4049 12.8467,13.4679 C12.9438,13.622 12.9999,13.8044 12.9999,14 L12.9999,16 C12.9999,16.5523 12.5522,17 11.9999,17 C11.4476,17 10.9999,16.5523 10.9999,16 L10.9999,14 C10.9999,13.8044 11.0561,13.622 11.1531,13.4679 C10.3343,13.4049 9.58974,13.2515 8.99594,13.0288 C8.60121,12.8808 8.24704,12.6925 7.98256,12.458 C7.71867,12.224 7.49993,11.9014 7.49993,11.5 C7.49993,11.0986 7.71867,10.776 7.98256,10.542 C8.24704,10.3075 8.60121,10.1192 8.99594,9.97118 C9.55249,9.76247 10.2415,9.61466 10.9999,9.54505 L10.9999,8 L8.99993,8 C8.44764,8 7.99993,7.55228 7.99993,7 C7.99993,6.44772 8.44764,6 8.99993,6 L14.9999,6 Z M12.9987,10.5496 C12.9729,11.0788 12.5356,11.5 11.9999,11.5 C11.4643,11.5 11.027,11.0788 11.0011,10.5496 C10.3544,10.6153 9.78681,10.7426 9.34706,10.9075 C9.01793,11.0309 8.78632,11.1658 8.64597,11.2903 C8.52852833,11.3943833 8.50540611,11.4617306 8.50096097,11.4886958 L8.49993,11.5 C8.49993,11.5128 8.50504,11.5848 8.64597,11.7097 C8.78632,11.8342 9.01793,11.9691 9.34706,12.0925 C10.0016,12.338 10.9394,12.5 11.9999,12.5 C13.0604,12.5 13.9982,12.338 14.6528,12.0925 C14.9819,11.9691 15.2135,11.8342 15.3539,11.7097 C15.4478333,11.6264333 15.4814111,11.5666778 15.4933593,11.5323 L15.4999,11.5 L15.4999,11.5 L15.4933593,11.4677 C15.4814111,11.4333222 15.4478333,11.3735667 15.3539,11.2903 C15.2135,11.1658 14.9819,11.0309 14.6528,10.9075 C14.213,10.7426 13.6455,10.6153 12.9987,10.5496 Z" id="形状" fill="#09244B"></path>
            </g>
        </g>
    </g>
</svg>

<svg xmlns="http://www.w3.org/2000/svg" width="24" height="24"><g fill="none" fill-rule="evenodd"><path d="M24 0v24H0V0h24ZM12.593 23.258l-.011.002-.071.035-.02.004-.014-.004-.071-.035c-.01-.004-.019-.001-.024.005l-.004.01-.017.428.005.02.01.013.104.074.015.004.012-.004.104-.074.012-.016.004-.017-.017-.427c-.002-.01-.009-.017-.017-.018Zm.265-.113-.013.002-.185.093-.01.01-.003.011.018.43.005.012.008.007.201.093c.012.004.023 0 .029-.008l.004-.014-.034-.614c-.003-.012-.01-.02-.02-.022Zm-.715.002a.023.023 0 0 0-.027.006l-.006.014-.034.614c0 .012.007.02.017.024l.015-.002.201-.093.01-.008.004-.011.017-.43-.003-.012-.01-.01-.184-.092Z"/><path fill="#09244B" d="M17.42 3a2 2 0 0 1 1.649.868l.087.14L22.49 9.84a2 2 0 0 1-.208 2.283l-.114.123-9.283 9.283a1.25 1.25 0 0 1-1.666.091l-.102-.09-9.283-9.284a2 2 0 0 1-.4-2.257l.078-.15 3.333-5.832a2 2 0 0 1 1.572-1.001L6.58 3h10.84Zm0 2H6.58l-3.333 5.833L12 19.586l8.753-8.753L17.42 5ZM15 6a1 1 0 1 1 0 2h-2v1.545c.758.07 1.447.217 2.004.426.395.148.749.336 1.013.571.264.234.483.557.483.958 0 .401-.219.724-.483.958-.264.235-.618.423-1.013.57-.594.223-1.338.377-2.157.44A.995.995 0 0 1 13 14v2a1 1 0 1 1-2 0v-2c0-.196.056-.378.153-.532-.819-.063-1.563-.216-2.157-.44-.395-.147-.749-.335-1.013-.57-.264-.234-.483-.557-.483-.958 0-.401.219-.724.483-.958.264-.235.618-.423 1.013-.57.556-.21 1.245-.357 2.004-.427V8H9a1 1 0 1 1 0-2h6Zm-2.001 4.55a1 1 0 0 1-1.998 0c-.647.065-1.214.193-1.654.357-.33.124-.56.259-.701.383-.117.104-.14.172-.145.199L8.5 11.5c0 .013.005.085.146.21.14.124.372.26.701.382.655.246 1.592.408 2.653.408 1.06 0 1.998-.162 2.653-.408.329-.123.56-.258.7-.382a.46.46 0 0 0 .14-.178l.007-.032-.007-.032a.46.46 0 0 0-.14-.178c-.14-.124-.371-.26-.7-.382-.44-.165-1.008-.293-1.654-.358Z"/></g></svg>
